usr/share/icons/biglinux-icons-material-dark/symbolic/status/state-pause-symbolic.svg

<svg xmlns="http://www.w3.org/2000/svg" viewBox="0 0 22 22">
  <defs id="defs3051">
    <style type="text/css" id="current-color-scheme">
      .ColorScheme-Text {
        color:#232629;
      }
      .ColorScheme-NeutralText {
        color:#f67400;
      }
      </style>
  </defs>
  <g
     transform="translate(-421.71429,-525.79074)">
    <path
       style="opacity:1;fill:currentColor;fill-opacity:1;stroke:none"
       d="M 11 4 A 6 6 0 0 0 5 10 A 6 6 0 0 0 5.0039062 10.128906 A 4 4 0 0 0 2 14 A 4 4 0 0 0 6 18 L 15 18 A 5 5 0 0 0 20 13 A 5 5 0 0 0 16.757812 8.3242188 A 6 6 0 0 0 11 4 z M 11 5 A 5 5 0 0 1 15.919922 9.1113281 A 4.0000019 4.0000019 0 0 1 19 13 A 4.0000019 4.0000019 0 0 1 15 17 L 6 17 A 2.9999979 2.9999979 0 0 1 3 14 A 2.9999979 2.9999979 0 0 1 6 11 A 2.9999979 2.9999979 0 0 1 6.1074219 11.005859 A 5 5 0 0 1 6 10 A 5 5 0 0 1 11 5 z "
       transform="translate(421.71429,525.79074)"
        class="ColorScheme-Text"
       id="path4196" />
    <path
       
     style="fill:currentColor;fill-opacity:1;stroke:none" 
     class="ColorScheme-NeutralText"
       d="m 437.71429,536.79076 c 2.216,0 4,1.784 4,4 0,2.216 -1.784,4 -4,4 -2.216,0 -4,-1.784 -4,-4 0,-2.216 1.784,-4 4,-4 z" 
       id="rect4153-8-8" />
    <path
       style="opacity:1;fill:#ffffff;fill-opacity:1;stroke-linecap:round"
       d="M 14 13 L 14 17 L 15 17 L 15 13 L 14 13 z M 17 13 L 17 17 L 18 17 L 18 13 L 17 13 z "
       transform="translate(421.71429,525.79074)"
       id="rect4521" />
  </g>
</svg>

<svg xmlns="http://www.w3.org/2000/svg" viewBox="0 0 22 22">
<defs id="defs3051">
<style id="current-color-scheme" type="text/css">
.ColorScheme-Contrast{color:#232629}.ColorScheme-NeutralText{color:#f67400}
</style>
</defs>
<g transform="translate(-421.714 -525.79)">
<path id="path4196" d="M11 4a6 6 0 0 0-6 6l.004.129A4 4 0 0 0 2 14a4 4 0 0 0 4 4h9a5 5 0 0 0 5-5 5 5 0 0 0-3.242-4.676A6 6 0 0 0 11 4m0 1a5 5 0 0 1 4.92 4.111A4 4 0 0 1 19 13a4 4 0 0 1-4 4H6a3 3 0 0 1-3-3 3 3 0 0 1 3-3l.107.006A5 5 0 0 1 6 10a5 5 0 0 1 5-5" class="ColorScheme-Contrast" style="opacity:1;fill:currentColor;fill-opacity:1;stroke:none" transform="translate(421.714 525.79)"/>
<path id="rect4153-8-8" d="M437.714 536.79c2.216 0 4 1.785 4 4 0 2.217-1.784 4-4 4s-4-1.783-4-4c0-2.215 1.784-4 4-4" class="ColorScheme-NeutralText" style="fill:currentColor;fill-opacity:1;stroke:none"/>
<path id="rect4521" d="M14 13v4h1v-4zm3 0v4h1v-4z" style="opacity:1;fill:#fff;fill-opacity:1;stroke-linecap:round" transform="translate(421.714 525.79)"/>
</g>
</svg>
